Numix-GalliumOS/64/devices/harddrive.svg

<?xml version="1.0" encoding="UTF-8" standalone="yes"?>
<svg xmlns="http://www.w3.org/2000/svg" xmlns:xlink="http://www.w3.org/1999/xlink" width="64px" height="64px" viewBox="0 0 48 48" version="1.1">
  <g id="surface1">
    <path style=" stroke:none;fill-rule:nonzero;fill:rgb(51.372549%,58.039216%,58.823529%);fill-opacity:1;" d="M 12.5625 7.5 L 35.4375 7.5 C 36.578125 7.5 37.5 8.421875 37.5 9.5625 L 37.5 38.4375 C 37.5 39.578125 36.578125 40.5 35.4375 40.5 L 12.5625 40.5 C 11.421875 40.5 10.5 39.578125 10.5 38.4375 L 10.5 9.5625 C 10.5 8.421875 11.421875 7.5 12.5625 7.5 Z M 12.5625 7.5 "/>
    <path style=" stroke:none;fill-rule:nonzero;fill:rgb(99.215686%,96.470588%,89.019608%);fill-opacity:0.462745;" d="M 30.011719 7.5 L 34.511719 7.5 L 34.511719 40.5 L 30.011719 40.5 Z M 30.011719 7.5 "/>
    <path style=" stroke:none;fill-rule:nonzero;fill:rgb(2.745098%,21.176471%,25.882353%);fill-opacity:1;" d="M 24.089844 11.964844 C 22.636719 11.949219 21.164062 12.28125 19.792969 13.007812 C 15.398438 15.335938 13.765625 20.777344 16.09375 25.171875 C 18.023438 28.8125 22.078125 30.574219 25.921875 29.753906 L 24.246094 23.84375 C 24.191406 23.847656 24.144531 23.875 24.089844 23.875 C 22.414062 23.875 21.054688 22.519531 21.054688 20.84375 C 21.054688 19.167969 22.414062 17.808594 24.089844 17.808594 C 25.761719 17.808594 27.121094 19.167969 27.121094 20.84375 C 27.121094 21.59375 26.84375 22.273438 26.394531 22.800781 L 30.28125 27.445312 C 33.097656 24.726562 33.910156 20.367188 31.984375 16.734375 C 30.386719 13.714844 27.28125 12 24.089844 11.964844 Z M 24.089844 11.964844 "/>
    <path style=" stroke:none;fill-rule:nonzero;fill:rgb(2.745098%,21.176471%,25.882353%);fill-opacity:1;" d="M 26.804688 26.71875 L 29.898438 36 L 32.992188 36 L 32.992188 33.9375 Z M 26.804688 26.71875 "/>
    <path style=" stroke:none;fill-rule:nonzero;fill:rgb(57.647059%,63.137255%,63.137255%);fill-opacity:0.494118;" d="M 15.527344 23.621094 C 16.332031 26.152344 18.265625 28.25 20.84375 29.257812 L 22.964844 23.613281 C 22.65625 23.492188 22.382812 23.320312 22.117188 23.09375 C 21.691406 22.726562 21.382812 22.269531 21.214844 21.773438 Z M 15.527344 23.621094 "/>
    <path style=" stroke:none;fill-rule:nonzero;fill:rgb(14.901961%,54.509804%,82.352941%);fill-opacity:0.247059;" d="M 15.269531 18.992188 C 14.703125 21.585938 15.328125 24.371094 17.058594 26.535156 L 21.710938 22.707031 C 21.507812 22.445312 21.355469 22.160156 21.242188 21.832031 C 21.054688 21.300781 21.015625 20.75 21.121094 20.234375 Z M 15.269531 18.992188 "/>
    <path style=" stroke:none;fill-rule:nonzero;fill:rgb(57.647059%,63.137255%,63.137255%);fill-opacity:0.494118;" d="M 32.523438 17.96875 C 31.699219 15.445312 29.753906 13.363281 27.164062 12.371094 L 25.085938 18.03125 C 25.394531 18.148438 25.671875 18.320312 25.9375 18.542969 C 26.363281 18.90625 26.675781 19.363281 26.847656 19.859375 Z M 32.523438 17.96875 "/>
    <path style=" stroke:none;fill-rule:nonzero;fill:rgb(14.901961%,54.509804%,82.352941%);fill-opacity:0.192157;" d="M 32.816406 22.597656 C 33.363281 20 32.71875 17.21875 30.972656 15.070312 L 26.34375 18.929688 C 26.550781 19.1875 26.707031 19.472656 26.824219 19.800781 C 27.011719 20.328125 27.054688 20.882812 26.953125 21.394531 Z M 32.816406 22.597656 "/>
  </g>
</svg>

<svg xmlns="http://www.w3.org/2000/svg" width="64" height="64" viewBox="0 0 48 48">
 <g>
  <path d="m 12.563 7.5 l 22.875 0 c 1.141 0 2.063 0.922 2.063 2.063 l 0 28.875 c 0 1.141 -0.922 2.063 -2.063 2.063 l -22.875 0 c -1.141 0 -2.063 -0.922 -2.063 -2.063 l 0 -28.875 c 0 -1.141 0.922 -2.063 2.063 -2.063 m 0 0" style="fill:#829495;fill-opacity:1;stroke:none;fill-rule:nonzero"/>
  <path d="m 30.01 7.5 l 4.5 0 l 0 33 l -4.5 0 m 0 -33" style="fill:#fcf5e3;fill-opacity:0.463;stroke:none;fill-rule:nonzero"/>
  <path d="m 24.09 11.965 c -1.453 -0.016 -2.926 0.316 -4.297 1.043 c -4.395 2.328 -6.03 7.77 -3.699 12.164 c 1.93 3.641 5.984 5.402 9.828 4.582 l -1.676 -5.91 c -0.055 0.004 -0.102 0.031 -0.156 0.031 c -1.676 0 -3.035 -1.355 -3.035 -3.03 c 0 -1.676 1.359 -3.035 3.035 -3.035 c 1.672 0 3.03 1.359 3.03 3.035 c 0 0.75 -0.277 1.43 -0.727 1.957 l 3.887 4.645 c 2.816 -2.719 3.629 -7.078 1.703 -10.711 c -1.598 -3.02 -4.703 -4.734 -7.895 -4.77 m 0 0" style="fill:#063642;fill-opacity:1;stroke:none;fill-rule:nonzero"/>
  <path d="m 26.805 26.719 l 3.094 9.281 l 3.094 0 l 0 -2.063 m -6.188 -7.219" style="fill:#063642;fill-opacity:1;stroke:none;fill-rule:nonzero"/>
  <path d="m 15.527 23.621 c 0.805 2.531 2.738 4.629 5.316 5.637 l 2.121 -5.645 c -0.309 -0.121 -0.582 -0.293 -0.848 -0.52 c -0.426 -0.367 -0.734 -0.824 -0.902 -1.32 m -5.688 1.848" style="fill:#93a1a1;fill-opacity:0.494;stroke:none;fill-rule:nonzero"/>
  <path d="m 15.27 18.992 c -0.566 2.594 0.059 5.379 1.789 7.543 l 4.652 -3.828 c -0.203 -0.262 -0.355 -0.547 -0.469 -0.875 c -0.188 -0.531 -0.227 -1.082 -0.121 -1.598 m -5.852 -1.242" style="fill:#268bd1;fill-opacity:0.247;stroke:none;fill-rule:nonzero"/>
  <path d="m 32.523 17.969 c -0.824 -2.523 -2.77 -4.605 -5.359 -5.598 l -2.078 5.66 c 0.309 0.117 0.586 0.289 0.852 0.512 c 0.426 0.363 0.738 0.82 0.91 1.316 m 5.676 -1.891" style="fill:#93a1a1;fill-opacity:0.494;stroke:none;fill-rule:nonzero"/>
  <path d="m 32.816 22.598 c 0.547 -2.598 -0.098 -5.379 -1.844 -7.527 l -4.629 3.859 c 0.207 0.258 0.363 0.543 0.48 0.871 c 0.188 0.527 0.23 1.082 0.129 1.594 m 5.863 1.203" style="fill:#268bd1;fill-opacity:0.192;stroke:none;fill-rule:nonzero"/>
 </g>
</svg>
